X:368
T:Jingle Bells
C:James Lord Pierpont, 1857
M:4/4
L:1/4
S:Colin Hume's website,  colinhume.com  - chords can also be printed below the stave.
Q:1/2=110
K:G
"G"DB AG | "/"D3 D/D/ | "G"DB AG | "C"E4 | "Am"Ec BA | "D"F4 | "D7"dd cA | "G"B4 |
"G"DB AG | "/"D4 | "G"DB "G7"AG | "C"E4 | "Am"Ec BA | "D"dd d3/d/ | "D7"ed cA | "G"G2 "D7"d2 |
"G"BB B2 | "/"BB B2 | "Em"Bd "D"G3/A/ | "G"B2- "G7"B2 | "C"cc c3/c/ | "G"cB BB/B/ | "A7"BA AB | "D7"A2 d2 |
"G"BB B2 | "/"BB B2 | "Em"Bd "D7"G3/A/ | "G"B2- "G7"B2 | "C"cc c3/c/ | "G"cB BB/B/ | "D7"dd cA | "G"G2 z2 |]

